packages/ui-icons/svg/Line/drop-down.svg

<svg viewBox="0 0 1920 1920" version="1.1" xmlns="http://www.w3.org/2000/svg">
    <path d="M960,1807.05882 C492.875294,1807.05882 112.941176,1427.12471 112.941176,960 C112.941176,492.875294 492.875294,112.941176 960,112.941176 C1427.12471,112.941176 1807.05882,492.875294 1807.05882,960 C1807.05882,1427.12471 1427.12471,1807.05882 960,1807.05882 M960,0 C430.644706,0 0,430.644706 0,960 C0,1489.35529 430.644706,1920 960,1920 C1489.35529,1920 1920,1489.35529 1920,960 C1920,430.644706 1489.35529,0 960,0 M1016.47059,1275.44471 L1016.47059,451.764706 L903.529412,451.764706 L903.529412,1275.44471 L604.687059,976.602353 L524.724706,1056.45176 L960,1491.61412 L1395.27529,1056.45176 L1315.31294,976.602353 L1016.47059,1275.44471 Z" stroke="none" stroke-width="1" fill-rule="evenodd"/>
</svg>

<svg viewBox="0 0 1920 1920" xmlns="http://www.w3.org/2000/svg">
    <path d="M960 1807.059c-467.125 0-847.059-379.934-847.059-847.059 0-467.125 379.934-847.059 847.059-847.059 467.125 0 847.059 379.934 847.059 847.059 0 467.125-379.934 847.059-847.059 847.059M960 0C430.645 0 0 430.645 0 960s430.645 960 960 960 960-430.645 960-960S1489.355 0 960 0m56.47 1275.445v-823.68H903.53v823.68L604.686 976.602l-79.962 79.85L960 1491.614l435.275-435.162-79.962-79.85-298.842 298.843Z" fill-rule="evenodd"/>
</svg>
